X: 04073
T: PETE'S MARCH
C: Bob McQuillan
Z: 2009-11-03 John Chambers <jc:trillian.mit.edu>
N: With love to Pete Colby, the greatest plucker of them all!
B: Bob's Note Book 4 #73
M: C
L: 1/4
K: D
A,B, \
| D2  D>F | ED D>E | FA Ad | B A3 | f>e df | e>d Bd | A>B AF    | FE A,B, |
| D2  D>F | ED D>E | FA Ad | B A3 | f>e df | e>d Bd | AF  EF/E/ | D2     ||
|| de \
| f2 f>g | fe d>f | ed Bd | BA FE | DF Ad | fa gf  | ed gf | f2 e2 |
| f2 f>g | fe df  | ed Bd | BA FE | DF Ad | dB A>g | fe dc | d2    |]

%%sep 1 1 500

%%sep 1 1 500

